X:1
T:James Gibb editions
T:Homeward bound - Stanford
T:#
%%score 1 [ 2 3 ] { ( 4 5 ) | ( 6 7 ) }
L:1/8
Q:1/4=90
M:6/4
K:C
V:1 treble nm="Voice"
V:2 treble nm="Tenor" snm="T"
V:3 treble nm="Bass" snm="B"
V:4 treble nm="Piano"
V:5 treble 
V:6 bass 
V:7 bass 
V:1
 z12 | z12 | z12 ||[K:Db][M:6/4][K:bass] z12 | z12 | z12 |!p! D,2 F,2 A,2 C4 B,2 | %7
w: ||||||Af- ter long lab'- ring|
 (B,2 C2) A,2 (A,2 B,2) G,2 | F,6- F,2 z2 E,2 | D,6- D,4 D,2 | (__B,6- B,2 D2) _C2 | %11
w: in * the win\- * dy|ways, * On|smooth * and|shin\- * * ing|
 _F,6- F,2 z2 z2 | z12 |!mf! !courtesy!=F,2 A,2 D2 F,2 E,4 || D,12 | z4 z2 z4!p! D,2 | %16
w: tides *||Swift- ly the great ship|glides,|Her|
 D4 F,2 B,4 A,2 | (D2 F,2) B,2 (A,2 G,2) C,2 | D,6 z4 z2 | z12 | D,2 F,2 A,2 _C6- | %21
w: storms for- got, her|wea\- * ry wat\- * ches|past;||North- ward she glides|
 C2 z2 _C2 (C2 A,2) C2 |!pp! (=D6- D2 =B,2) =A,2 | =D,6- D,2 z2 z2 | z12 | z12 | z12 | z12 | %28
w: * and thro' * th'en\-|chant\- * * ed|haze *|||||
 A,6 _C4 B,2 | B,6- B,4 z2 | G,6 __B,4 A,2 |!<(! A,12!<)! | z4 z2 F,6 |"^cresc." A,6 D6 | %34
w: Faint on the|verge, *|faint on the|verge|her|far hope|
 F,6- F,4 E,2 | D,6- D,4 z2 | z12 | z12 | z4 z2 z4!pp!"^mezza voce" A,2 | D4 C2 C4 B,2 | %40
w: dawns * at|last. *|||The|phan- tom sky- line|
 (B,2 C2) A,2 A,2 B,2 G,2 | F,6- F,2 z2 E,2 | D,6 G,6 | (__B,6- B,2 D2) _C2 | _F,6- F,2 z2 z2 | %45
w: of * a sha- dow- y|down, * Whose|pale white|cliffs * * be-|low, *|
 z4 z2 z4 G,2 | (!courtesy!=F,2 A,2) D2 F,4- F,E, | D,6- D,4 z2 | z4 z2 z4 D,2 | D4 F,2 B,4 A,2 | %50
w: Thro'|sun- * ny mist * a-|glow, *|Like|noon- day ghosts of|
 (D2 F,2) B,2 (A,2 G,2) A,2 | F,6 z4 z2 | z12 | _C6- C2 A,2 F,2 | A,2!<(! G,4-!<)! G,4 z2 | %55
w: sum\- * mer moon\- * shine|gleam.||Soft * as old|sor- row, *|
!mf! =D4 =B,2 (^G,2 =E,2) =D,2 | ^C,6- C,2 z2 z2 | z12 | z12 |"^più lento"[Q:1/4=80] z12 | %60
w: bright as old * re-|nown, *||||
!p! A,6 C4 B,2 |[Q:1/4=80][Q:1/4=80][Q:1/4=80][Q:1/4=80] B,6- B,4 z2 | G,6 B,4 A,2 |!<(! F,12!<)! | %64
w: There lies the|home, *|there lies the|home|
 z12 | z4 z2 z4!p! B,,2 | D,12 | z4 z2!pp! F,6 | A,6 D6 | F,6- F,4 E,2 | D,12- | D,6 D,4 z2 | %72
w: |The|home|Of|all our|mor\- * tal|dream.||
[M:6/4] z12 | z12 | z12 |] %75
w: |||
V:2
 z12 | z12 | z12 ||[M:6/4] z12 | z12 | z12 | z12 |[M:6/4] z12 | z12 | z12 |[M:6/4] z12 | z12 | %12
w: ||||||||||||
 z12 | z12 ||[K:Db][M:6/4][K:treble-8] x12 | x12 | z12 | z4 z2 z4!pp! A2 | d4 F2 B4 A2 | %19
w: |||||Her|storms for- got, her|
 (d2 F2) B2 (A2 G2) A2 | F6 z4 z2 | E2 A2 _c2 e6 | z6!pp! =B2 B2 c2 | (=d6- d2 =B2) =A2 | =D12 | %25
w: wea\- * ry wat\- * ches|past;|North- ward she glides|and thro' th'en-|chant\- * * ed|haze|
 z12 | z12 | z12 | z12 |!pp! B6 A4 G2 | G12 | A12- | A6!pp! A6 | A6 B6 | B6- B4 c2 | d6- d4 z2 | %36
w: ||||Faint on the|verge,|faint,|* her|far hope|dawns * at|last. *|
[M:6/4] z12 | z12 | z12 | z12 |[M:6/4] z12 | z12 | z12 |[M:6/4] z12 | z12 | z12 |[M:6/4] z12 | %47
w: |||||||||||
 z12 | z12 | z12 |[M:6/4][K:treble-8] z4 z2 z4!pp! A2 | d4 F2 B4 A2 | (d2 F2) B2 (A2 G2) A2 | %53
w: |||Like|noon- day ghosts of|sum\- * mer moon\- * shine|
 F4 z2 z4 z2 | _c6- c2!<(! G2 E2!<)! | __B2 A4- A2 z2 z2 | [^c=e]4 c2 (=A2 =E2) A2 | =A6 z4 z2 | %58
w: gleam,|Soft * as old|sor- row, *|bright as old * re-|nown,|
 z12 | z12 | z12 |!p! G6 e4 c2 | G6 z4 z2 | A6!<(! f4 e2!<)! | (e6!>(! d6-!>)! | d6) z4 z2 | %66
w: |||There lies the|home,|there lies the|home, *||
 z8 x4 | z4 z2!pp! A6 | A6 [GB]6 | [AB-]6 [GB]4 [Gc]2 | [Fd]12- | [Fd]6 [Fd]4 z2 |[M:6/4] z12 | %73
w: |Of|all our|mor\- * tal|dream.|||
 z12 | z12 |] %75
w: ||
V:3
 z12 | z12 | z12 ||[M:6/4] z12 | z12 | z12 | z12 |[M:6/4] z12 | z12 | z12 |[M:6/4] z12 | z12 | %12
w: ||||||||||||
 z12 | z12 ||[K:Db][M:6/4][K:bass] x12 | x12 | z12 | z4 z2 z4!pp! A,2 | %18
w: |||||Her|
 [D,F,]4 [D,F,]2 [D,E,]2- [D,G,]2 [E,G,]2 | ([F,A,]2 [D,F,]2) [B,,D,]2 [B,,D,]4 [C,E,]2 | %20
w: storms for- got, * her|wea\- * ry wat- ches|
 [D,F,]6 _C,2 F,2 A,2 | _C12 | z4!pp! [=B,,=G,]2 [B,,G,]4 [C,=A,]2 | %23
w: past; North- ward she|glides|and thro' th'en-|
 ([=D,=B,]6- [D,B,]2 [D,!courtesy!=G,]2) [C,=A,]2 | =D,12 | z12 | z12 | z12 | z12 | %29
w: chant\- * * ed|haze|||||
!pp! B,,6 F,4 E,2 | E,12 | A,,12- | A,,6!pp! F,6 | [D,G,]4- [D,F,]2 [D,F,]6 | %34
w: Faint on the|verge,|faint,|* her|far * hope|
 [F,A,]6- [F,G,]4 [E,G,]2 | [D,F,]6- [D,F,]4 z2 |[M:6/4] z12 | z12 | z12 | z12 |[M:6/4] z12 | z12 | %42
w: dawns * at|last. *|||||||
 z12 |[M:6/4] z12 | z12 | z12 |[M:6/4] z12 | z12 | z12 | z12 |[M:6/4] z4 x2 z4!pp!!pp! A,2 | %51
w: ||||||||Like|
 [D,F,]4 [D,F,]2 [D,E,]2- [D,G,]2 [E,G,]2 | ([F,A,]2 [D,F,]2) [B,,D,]2 [B,,D,]4 [C,E,]2 | %53
w: noon- day ghosts * of|sum\- * mer moon- shine|
 [D,F,]4 z2 z4 z2 | E,6- E,2!<(! _C,2 E,2!<)! | G,2 _F,4- F,2 z2 z2 | %56
w: gleam,|Soft * as old|sor- row, *|
 [=A,^C]4 [=E,A,]2 ([^C,E,]2 [=A,,C,]2) !courtesy!=A,,2 | A,,6 z4 z2 | z12 | z12 | z12 | %61
w: bright as old * re-|nown,||||
!p! E,6 [E,G,]4 [E,G,]2 | G,6 z4 z2 | [F,A,]6!<(! [F,D]4 [F,_C]2!<)! | ([G,-_C]6!>(! [G,B,]6!>)! | %65
w: There lies the|home,|there lies the|home, *|
 [G,B,]6) z4 B,,2 | D,12 | z4 z2!pp! [D,F,]6 | [C,E,]6 [B,,D,]6 | [A,,F,]6- [A,,F,]4 [A,,E,]2 | %70
w: * The|home|Of|all our|mor\- * tal|
 [D,,A,,D,]12- | [D,,A,,D,]6 [D,,A,,D,]4 z2 |[M:6/4] z12 | z12 | z12 |] %75
w: dream.|||||
V:4
[K:Db]"^Henry Newbolt\n(1862-1938)""^Charles Villiers Stanford\n(1852-1924)""^Homeward bound" x4!p! D2 [DF]4 [CE]2 | %1
 (D2 F2 B2 d4 c2) |!pp! (B2 d2 g2 =a6-) || ([^c=ea]2 [=Ace]2 [=EAc]2) =a6- | %4
 [cfa]2 [=Acf]2 [FAc]2 ([!courtesy!_B!courtesy!_df]2 [FBd]2 [DFB]2) | %5
 ([GBd]2 [DGB]2 [B,DG]2 [A,CF]4 [G,CE]2) | (FEDCB,A, =A,CEA,B,D) | %7
 (G,B,ECA,C)[I:staff +1] (F,A,[I:staff -1]D[I:staff +1]B,G,[I:staff -1]C) | %8
 (FEDCB,=A, CA,B,[I:staff +1]F,[I:staff -1]_C_A,) | (B,2 D2 G2 B6) | (=D2 ^F2 =A2 =d2 ^c2 =B2) | %11
 ([^c=e]2 [=Ac]2 [ce]2 =a6- | [^ca]2 [=A=e]2 [=Ec]2 _A4 !courtesy!_G2) | %13
 (F2 !courtesy!_E2 D2 =G,B,DB,DC) ||[I:staff +1] [F,D][I:staff -1](defdf b4 B2) | %15
[I:staff +1] [F,A,][I:staff -1](defdf b4 B2) |[I:staff +1] [F,A,][I:staff -1](defdf b4 c2) | %17
[I:staff +1] [F,A,][I:staff -1](defdf b4 c2) |[I:staff +1] [F,A,][I:staff -1](defdf b4 c2) | %19
[I:staff +1] [F,A,][I:staff -1](defdf b4 c2) | (f2 d2 A2) (_c2- A2 F2) | (a2 e2 c2) (e2 _c2 A2) | %22
!pp! [=B=d=g=b]6- [Bdgb]4 [=Acd=a]2 | (=g4 f2 [=B=d]4 =A2 | [=B,=A]6- [B,=G]6) | %25
 z4 z2 ([=B,F^G]6- | [CFA]6 [C=Gc]6 | [Fcf]6 [!courtesy!_Acf!courtesy!_a]6) | %28
 ([_cfa_c']6- [cfac']4 [Bb]2) | ([Bfab]6- [Bfab]4 [eg]2) | ([__Beg__b]6- [Begb]4 [Aa]2) | %31
 ([A_cga]6- [Acga]4 [Ac_fa]2) | [Adg]4- [Ad!courtesy!=f]2 ([FAd]4 [DFA]2) | %33
 [A,DG]4- [A,DF]2[I:staff +1] ([F,B,D]4 [D,F,B,]2) | ([F,A,B,]6- [F,G,B,]4 [E,G,C]2) | %35
[I:staff -1] (F2 A2 d2 f4 e2) | (d2 g2 b2 [degd']4- [cegc']2) | (F2!<(! A2 d2 f4 e2)!<)! | %38
!f! (d2!>(! g2 b2 [degd']4- [cegd']2)!>)! |!pp! (fedcBA =AceABd) | z (BecAc) z (AdBGc) | %41
 (fedcB=A cABF_c_A) | (B2 d2 g2 b6) | (=d2 ^f2 =a2 [!courtesy!=d=d']2 [^c^c']2 [=B=b]2) | %44
 (^c'2 =a2 =e2) (a6- | [^ca]2 [=A=e]2 [=Ec]2) [!courtesy!_D!courtesy!=F_A]4- [DG]2 | %46
 (F2 E2 D2) (F2 D2 [G,C]2 |[I:staff +1] [F,D])[I:staff -1](defdf- b4 B2) | %48
[I:staff +1] [F,A,][I:staff -1](defdf b4 B2) |[I:staff +1] [F,A,][I:staff -1](defdf b4 c2) | %50
[I:staff +1] [F,A,][I:staff -1](defdf b4 c2) |[I:staff +1] [F,A,][I:staff -1](defdf b4 c2) | %52
[I:staff +1] [F,A,][I:staff -1](defdf b4 c2) | (f2 _c2 A2) (c2 A2 F2) | (g2 e2 _c2) (e2 c2 G2) | %55
!mf! =d6- d2 z2 z2 | ([=A^c=e]4!<(! [=EAc]2) ([EAc]2 [Ace]2 [ce=a]2)!<)! | %57
!f! ([f=a!courtesy!=c']2!>(! [!courtesy!=cfa]2 [=Acf]2) ([!courtesy!_B!courtesy!_df]2 [FBd]2 [DFB]2)!>)! | %58
 ([G__Bd]2 [DGB]2 [__B,DG]2) [B,DF]4- [B,DE]2 |"^più lento"!pp! ([Fdf]4 [FAd]2) [Ad]4- [Ac]2 | %60
 ([Ac]6 [Ac]4 [GB]2) | (g4 e2) [G-c]4 [GB]2 |!<(! [GB]6 [GB]4 [FA]2!<)! | %63
 [_c-f-_c']4 [cfa]2 [Fdf]4- [F!courtesy!_ce]2 |!f! ([eg]4 [_ce]2!>(! [Bd]4 [DGB]2)!>)! | %65
!p! (A6 G6) | x12 |!pp! z4 z2 ([A,DF]6- | [A,EA]6 [B,DG]6) | %69
[I:staff +1] [F,A,B,]6- [F,G,B,]4 [E,G,C]2 | [D,F,D][I:staff -1](defdf b4) B2 | %71
[I:staff +1] [F,A,][I:staff -1](defdf b4 B2) |[I:staff +1] [F,A,][I:staff -1]D-EFDF B4 D2 | %73
 (F4 A,2) (D4[I:staff +1] D,2) |[I:staff -1] z12 |] %75
V:5
[K:Db] x4 x4 x4 | D6 [DF]6 | B6 [=d^f]2- [^c=e]2 [=Bd]2 || x4 x2 ([=df]2 [^c=e]2 [=Bd]2 | %4
 x4 x4) x4 | x4 x4 x4 | x12 | G,4 F,2 x4 x2 | =A,4 x4 x4 | B,6 (D2 _C2 B,2) | =D6- D2 =E2 ^F2 | %11
 =E6 =d2 ^c2 =B2 | x4 x2 !courtesy!_D6 | D!courtesy!_A,B,A,B,A, =G,4 _G,2 || x12 | x12 | x12 | %17
 x12 | x12 | x4 x4 x4 | F6 _C6 | A6 E6 | x4 x4 x4 | [=G=B]6 =D2 G2 C2 | x12 | x12 | x12 | x12 | %28
 x12 | x12 | x12 | x12 | x12 | x12 | x4 x4 x4 | F6 [FA]6 | d6 x2 x4 | F6 [FA]6 | d6 x2 x4 | %39
 x4 x4 x4 | x4 x4 x4 | =A4 x4 x4 | x4 x2 (d2 _c2 B2) | x12 | x12 | x12 | D2 A,4 B,4 x2 | x4 x4 x4 | %48
 x4 x4 x4 | x4 x4 x4 | x12 | x12 | x12 | F6 _C6 | G6 E6 | [^F=A]2 [=E^G]4- [EG]2 z2 z2 | x12 | %57
 x12 | x12 | x6 D6- | D12 | [GB]6 C6- | C12 | x12 | G6- G4 x2 | [B,D]12 | z12 | x12 | x12 | x12 | %70
 x12 | x12 | x4 x4 x4 | x4 x2 (A,2 G,2) x2 | z12 |] %75
V:6
[K:Db]!p! (F,2- [F,A,]2 F,2 F,4 E,2) | z (C,B,,F,,D,,B,,, A,,,D,,F,,D,,F,,A,,) | %2
 z!pp!!pp! (G,,,D,,G,,B,,D,) z (^F,,,=D,,^F,,=A,,=D,) || %3
 z (=A,,,=E,,=A,,^C,=E,) z (F,,,=D,,F,,A,,=D,) | %4
 z (=A,,,F,,=A,,C,F,) z (!courtesy!_B,,,F,,B,,!courtesy!_D,F,) | G,,6 z2 .A,,2 .A,,,2 | %6
 F,6 E,4 F,2 | x6 F,4 E,2 | z4 E,2- E,2 D,2 F,2 | (G,,,D,,G,,B,,D,G,) (F,2 E,2 D,2) | x6 =A,6 | %11
 x12 | x12 | z2 (!courtesy!_G,2 F,2) [A,,,A,,]6 || [D,,,D,,]4 (D2 C2 B,2 D2 | %15
 [D,,A,,]4) (D2 C2 B,2 D2) | x4 (D2 B,2 G,2 A,2) | x4 (D2 B,2 G,2 A,2) | x4 D2 B,2 G,2 A,2 | %19
 [D,,A,,]4 (D2 B,2 G,2 A,2) | z (D,,A,,D,F,A,) z (=D,,A,,_C,F,A,) | %21
 z (E,,A,,_C,E,A,) z (_F,,A,,C,E,A,) | (F,,,F,,=G,,=B,,=D,=G, =B,2 =D4) | %23
 (F,,,F,,=G,,=B,,=D,=G,) =B,4- [C,F,]2 | [=D,F,]12 | z4 z2 ([=D,F,^G,]6- | %26
 [C,F,=A,]6 [B,,=E,=G,]6 | [=A,,C,F,]6- [F,,_A,,C,F,]6) | (D,,A,,D,F,A,_C E4 D2) | %29
 (G,,,G,,B,,D,F,B, =D4 E2) | (_C,,G,,_C,E,G,=A, D4 _C2) | (_F,,,_F,,A,,_C,_F,A, _C4 _F2) | %32
 [G,A,D]4- [=F,A,D]2 ([F,A,D]4 [D,F,A,]2) | F,,6 =G,,6 | A,,12 | (D,,A,,D,F,A,D A,F,D,DC,C) | %36
 z (B,,,G,,B,,D,G, B,G,D,B,,A,,A,) | (D,,A,,D,F,A,D A,F,D,D_C,_C) | %38
 z (B,,,G,,B,,D,G,) z (A,,,E,,A,,E,)A, |[K:treble] (F6 E4 F2) | (G4 F2) (F4 E2) | %41
 ([DF]6- [DE]2 D2 E2) |[K:bass] (G,,D,G,B,DG F2 E2 D2) | (^F,,=D,^F,=A,=D^F)[K:treble] =A6 | %44
[K:bass] (A,,=E,=A,^C=E=A)[K:treble] (^FAEA=DA |[K:bass] !courtesy!=F=A,^CA,=E,^C,) __B,6 | %46
 (!courtesy!_A,2- !courtesy!_G,2 F,2 A,4 A,,2) | x4 (D2 C2 B,2 D2) | x4 (D2 C2 B,2 D2) | %49
 x4 (D2 B,2 G,2 A,2) | x4 (D2 B,2 G,2 A,2) | x4 (D2 B,2- G,2 A,2) | x4 (D2 B,2 G,2 A,2) | %53
 z (D,,A,,_C,F,A,) z (=D,,A,,C,F,A,) | z (E,,"^cresc."G,,_C,E,G,) z (G,,C,E,G,_C) | %55
 z (=E,,=B,,=D,^G,=B, =D2) z2 z2 | (!courtesy!_A,,,!<(!=E,,=A,,^C,=E,=A, ^C2)!<)! z2 z2 | %57
 z!f!!>(! (=A,,,F,,=A,,C,F,) z (B,,,F,,B,,!courtesy!_D,F,)!>)! | z (G,,,D,,G,,__B,,D, G,6) | %59
!pp! (F,,,F,,A,,D,F,A, F,6- | F,6 G,6) | (E,,,E,,G,,C,E,G, E,6- |!<(! E,6 F,6)!<)! | %63
 (D,,,D,,A,,D,F,A,) [D,D]4- [D,_C]2 |!f! (G,,,G,,_C,E,G,_C) z!>(! (B,G,E,D,B,,)!>)! | %65
 z!p! G,(E,D,B,,G,,) z (E,D,B,,G,,E,,) | z12 | x12 | x12 | x12 | x4 (D2 C2 B,2 D2-) | %71
 x4 (D2 C2 B,2 D2) | [D,,,D,,]6 (C2 B,2) z2 | ((B,2 A,2)) z2 x6 | !fermata![A,,D,F,]12 |] %75
V:7
[K:Db] z!p! (E,D,C,B,,A,, =G,,B,,A,,G,,B,,A,,) | x4 x4 x4 | x4 x4 x4 || x4 x4 x4 | x4 x4 x4 | %5
 x4 x4 x4 | [D,,,D,,]12 | [D,,,D,,]12 | [D,,,D,,]12 | x12 | %10
 (^F,,,=D,,^F,,=A,,=D,^F,-) (F,2 =E,2 D,2) | (=A,,,=E,,=A,,^C,=E,=A, ^F,A,E,A,=D,A, | %12
 =E,=A,^CA,E,^C, [=A,,^D,]6) | _A,,6 x2 x4 || x4 x2 [D,F,]6 | x4 x2 [D,F,]6 | %16
 [D,,A,,]4 x2 [D,E,]6 | [D,,A,,]4 x2 [D,E,]6 | [D,,A,,]4 x2 [D,E,]6 | x4 x2 [D,E,]4- [C,E,]2 | %20
 x4 x4 x4 | x12 | x12 | x12 | x12 | x12 | x12 | x12 | x12 | x12 | x12 | x12 | x12 | x12 | x12 | %35
 x12 | x12 | x4 x4 x4 | x4 x4 x4 |[K:treble] D12- | D12 | x12 |[K:bass] x12 | %43
 x x x2 x2[K:treble] (^F2 =E2 =D2) |[K:bass] x4 x2[K:treble] x2 x4 |[K:bass] x4 x4 x4 | x4 x4 x4 | %47
 [D,,A,,]4 x2 [D,F,]6 | [D,,A,,]4 x2 [D,F,]6 | [D,,A,,]4 x2 [D,E,]4- [C,E,]2 | %50
 [D,,A,,]4 x2 [D,E,]6 | [D,,A,,]4 x2 [D,E,]6 | [D,,A,,]4 x2 [D,E,]4- [C,E,]2 | x12 | x12 | x12 | %56
 x12 | x12 | x12 | x12 | x12 | x12 | x12 | x12 | x12 | x12 | x12 | z4 z2 ([D,F,]6 | %68
 [C,E,]6 [B,,D,G,]6) | [A,,,A,,]12 | [D,,,D,,]4 x2 [D,F,]6 | [D,,,D,,]4 x2 [D,F,]6 | %72
 x4 x2 [D,F,]4 z2 | [D,F,]4 z2 [G,,B,,]4 x2 | [D,,,D,,]12 |] %75

